X: 11879
T: Emir's Delight, The
R: polka
M: 2/4
K: Gmajor
|:B2 d>c|BG D2|DG Bd|c/d/c/B/ A2|
Bd d/e/d/c/|Bd g>e|fd fa|gg/g/ gg:|
|:g/f/g/a/ ba|gd BG|DG Bd|c/d/c/B/ A2|
[1 g/f/g/a/ ba|gd Bd|ce/c/ Bd/B/|AB/A/ G2:|
[2 BG G>d|cA A>e|fd fa|gg/g/ gg||

